storage/app/icons/phosphoricons/regular/jar-label.svg

<svg xmlns="http://www.w3.org/2000/svg" fill="currentColor" viewBox="0 0 256 256"><path d="M184 48.81V32a16 16 0 0 0-16-16H88a16 16 0 0 0-16 16v16.81A40.05 40.05 0 0 0 40 88v112a40 40 0 0 0 40 40h96a40 40 0 0 0 40-40V88a40.05 40.05 0 0 0-32-39.19M56 112h144v64H56Zm112-64h-16V32h16Zm-48 0V32h16v16Zm-16-16v16H88V32ZM80 64h96a24 24 0 0 1 24 24v8H56v-8a24 24 0 0 1 24-24m96 160H80a24 24 0 0 1-24-24v-8h144v8a24 24 0 0 1-24 24"/></svg>

<svg xmlns="http://www.w3.org/2000/svg" viewBox="0 0 256 256" fill="currentColor"><path d="M184,48.81V32a16,16,0,0,0-16-16H88A16,16,0,0,0,72,32V48.81A40.05,40.05,0,0,0,40,88V200a40,40,0,0,0,40,40h96a40,40,0,0,0,40-40V88A40.05,40.05,0,0,0,184,48.81ZM56,112H200v64H56ZM168,48H152V32h16Zm-48,0V32h16V48ZM104,32V48H88V32ZM80,64h96a24,24,0,0,1,24,24v8H56V88A24,24,0,0,1,80,64Zm96,160H80a24,24,0,0,1-24-24v-8H200v8A24,24,0,0,1,176,224Z"/></svg>
